!!!OTL: AN SCHLOSSER HAT AN G'SELLEN G'HOT
!!!ARE: Europa, Mitteleuropa, Deutschland, Nuernberg
!!!SCT: Z0176
!!!YEM: Copyright 1995, estate of Helmut Schaffrath.
**kern
*ICvox
*Ivox
*M2/4
*k[f#]
*G:
{8d
=1
8g
8a
8b
8cc
=2
8ee
8dd
8dd}
{8dd
=3
8cc
8b
8a
8dd
=4
4.b}
{8d
=5
8g
8a
8b
8cc
=6
8ee
8dd
8dd}
{8dd
=7
8cc
8b
8a
8dd
=8
4.b}
{8g
=9
8a
8a
8b
8b
=10
8cc
8cc
8dd}
{8dd
=11
8cc
8b
8a
8g
=12
4.d}
{8d
=13
8g
8a
8b
8cc
=14
8ee
8dd
8dd}
{8dd
=15
8cc
8b
8a
8dd
=16
4.g}
==
!!!AGN: Schiffer -, Handwerker - Lied
!!!ONB: ESAC (Essen Associative Code) Database: ZUCCAL
!!!AMT: simple duple
!!!AIN: vox
!!!EED: Helmut Schaffrath
!!!EEV: 1.0
*-
